X:1
T:Single Girl
M:2/2
L:1/4
K:G
 d2 d e| B- G G G| d2 d e| B3 z| d d/2d/2 d e| B G G E| G3/2- B/2 G E|\
 D3 z| G2 B B| d B G D| B B A A| G3 z|

